packages/dnb-eufemia/assets/icons/transfer_to.svg

<svg width="16" height="16" viewBox="0 0 16 16" fill="none" xmlns="http://www.w3.org/2000/svg">
<path d="M11.4665 1.0621L11.7889 1.73925L11.4665 1.0621ZM12.3496 1.45379L11.6312 1.6693V1.6693L12.3496 1.45379ZM1 8.584C0.585786 8.584 0.25 8.91979 0.25 9.334C0.25 9.74821 0.585786 10.084 1 10.084V8.584ZM3.65149 10.3946C3.35859 10.6875 3.35859 11.1623 3.65149 11.4552C3.94438 11.7481 4.41925 11.7481 4.71215 11.4552L3.65149 10.3946ZM5.77273 9.334L6.30306 9.86433C6.59595 9.57144 6.59595 9.09656 6.30306 8.80367L5.77273 9.334ZM4.71215 7.21276C4.41925 6.91987 3.94438 6.91987 3.65149 7.21276C3.35859 7.50565 3.35859 7.98053 3.65149 8.27342L4.71215 7.21276ZM1.85386 4.08835C1.62652 4.4346 1.7229 4.89959 2.06915 5.12693C2.41539 5.35428 2.88038 5.25789 3.10773 4.91165L1.85386 4.08835ZM3.23859 13.8937C2.90372 13.6499 2.43462 13.7237 2.19083 14.0586C1.94704 14.3935 2.02088 14.8626 2.35576 15.1063L3.23859 13.8937ZM13.7273 13.9931H3.54545V15.4931H13.7273V13.9931ZM13.7273 15.4931C14.8444 15.4931 15.75 14.5875 15.75 13.4704H14.25C14.25 13.7591 14.016 13.9931 13.7273 13.9931V15.4931ZM13.7273 4.67492C14.016 4.67492 14.25 4.90895 14.25 5.19764H15.75C15.75 4.08052 14.8444 3.17492 13.7273 3.17492V4.67492ZM3.54545 4.67492H5.45455V3.17492H3.54545V4.67492ZM5.777 4.60206L11.7889 1.73925L11.144 0.384957L5.1321 3.24777L5.777 4.60206ZM5.45455 4.67492H13.0909V3.17492H5.45455V4.67492ZM13.0909 4.67492H13.7273V3.17492H13.0909V4.67492ZM11.6312 1.6693L12.3725 4.14043L13.8093 3.7094L13.0679 1.23828L11.6312 1.6693ZM11.7889 1.73925C11.726 1.7692 11.6512 1.73602 11.6312 1.6693L13.0679 1.23828C12.8237 0.424267 11.9113 0.0195739 11.144 0.384957L11.7889 1.73925ZM14.25 5.19764V13.4704H15.75V5.19764H14.25ZM4.71215 11.4552L6.30306 9.86433L5.2424 8.80367L3.65149 10.3946L4.71215 11.4552ZM6.30306 8.80367L4.71215 7.21276L3.65149 8.27342L5.2424 9.86433L6.30306 8.80367ZM1 10.084H5.77273V8.584H1V10.084ZM3.54545 3.17492C2.83696 3.17492 2.21406 3.53978 1.85386 4.08835L3.10773 4.91165C3.20239 4.76748 3.3633 4.67492 3.54545 4.67492V3.17492ZM3.54545 13.9931C3.42967 13.9931 3.32468 13.9563 3.23859 13.8937L2.35576 15.1063C2.68971 15.3495 3.10191 15.4931 3.54545 15.4931V13.9931Z" fill="black"/>
</svg>

<svg width="16" height="16" viewBox="0 0 16 16" fill="none" xmlns="http://www.w3.org/2000/svg"><path d="m11.466 1.062.323.677-.323-.677Zm.884.392-.719.215.719-.215ZM1 8.584a.75.75 0 0 0 0 1.5v-1.5Zm2.651 1.81a.75.75 0 1 0 1.061 1.061l-1.06-1.06Zm2.122-1.06.53.53a.75.75 0 0 0 0-1.06l-.53.53Zm-1.06-2.121a.75.75 0 0 0-1.062 1.06l1.061-1.06Zm-2.86-3.125a.75.75 0 0 0 1.255.824l-1.254-.824Zm1.386 9.806a.75.75 0 1 0-.883 1.212l.883-1.212Zm10.488.1H3.545v1.5h10.182v-1.5Zm0 1.5a2.023 2.023 0 0 0 2.023-2.024h-1.5a.523.523 0 0 1-.523.523v1.5Zm0-10.82c.289 0 .523.235.523.524h1.5a2.023 2.023 0 0 0-2.023-2.023v1.5Zm-10.182 0h1.91v-1.5h-1.91v1.5Zm2.232-.072 6.012-2.863-.645-1.354-6.012 2.863.645 1.354Zm-.322.073h7.636v-1.5H5.455v1.5Zm7.636 0h.636v-1.5h-.636v1.5Zm-1.46-3.006.742 2.471 1.436-.43-.741-2.472-1.437.431Zm.158.07a.114.114 0 0 1-.158-.07l1.437-.43a1.386 1.386 0 0 0-1.924-.854l.645 1.354Zm2.461 3.459v8.272h1.5V5.198h-1.5Zm-9.538 6.257 1.591-1.59-1.06-1.061-1.592 1.59 1.061 1.061Zm1.591-2.651-1.59-1.591-1.062 1.06 1.591 1.591 1.061-1.06ZM1 10.084h4.773v-1.5H1v1.5Zm2.545-6.91c-.708 0-1.331.366-1.691.914l1.254.824a.522.522 0 0 1 .437-.237v-1.5Zm0 10.82a.517.517 0 0 1-.306-.1l-.883 1.212c.334.244.746.387 1.19.387v-1.5Z" fill="#000"/></svg>
